packages/landing-ui/public/feature-unlimited.svg

<svg width="96" height="48" viewBox="0 0 96 48" fill="none" xmlns="http://www.w3.org/2000/svg">
<path d="M93.9652 25.2318C93.201 25.1273 92.4976 25.6623 92.3934 26.4261C91.7197 31.3594 89.2783 35.8976 85.5187 39.2043C81.7251 42.5407 76.8507 44.3782 71.7927 44.3782C69.0406 44.3782 66.3676 43.8495 63.8478 42.8067C63.806 42.7894 63.7577 42.7725 63.7142 42.7593C63.6846 42.7504 60.711 41.8215 56.2835 38.3068C55.6795 37.8274 54.8016 37.9286 54.3222 38.5323C53.843 39.1362 53.9439 40.0142 54.5477 40.4936C59.0899 44.099 62.2812 45.2303 62.8375 45.41C65.6806 46.5777 68.693 47.1699 71.7927 47.1699C77.5296 47.1699 83.059 45.0854 87.3624 41.3007C91.626 37.5508 94.395 32.4024 95.1595 26.804C95.2636 26.0398 94.729 25.3361 93.9652 25.2318Z" fill="#F6376D"/>
<path d="M60.3696 33.2471C63.3322 35.8881 67.0168 38.5879 71.8862 38.5877H71.891C80.1604 38.5846 86.8879 31.8545 86.8879 23.5849C86.8879 15.3123 80.1578 8.58224 71.8853 8.58224C71.8849 8.58224 71.8853 8.58224 71.8851 8.58224C66.1814 8.58224 62.2931 11.8943 59.5434 14.7796C55.5197 19.0018 46.3947 29.8282 46.0631 30.2477C37.3145 41.3202 32.1185 42.6535 31.8341 42.7188C31.7155 42.7342 31.6432 42.7593 31.5298 42.8063C29.2821 43.7365 26.9021 44.2592 24.4562 44.3598L23.5708 44.3776C17.9936 44.3739 12.7582 42.1922 8.82825 38.2334C4.89532 34.2717 2.75172 29.0142 2.79261 23.4291C2.83295 17.8915 5.04682 12.6877 9.02621 8.77649C12.958 4.91198 18.1209 2.79161 23.5863 2.79161C23.6562 2.79161 23.7268 2.79198 23.7967 2.79254C26.3831 2.81837 28.902 3.31301 31.2844 4.26324C31.4315 4.3218 31.5785 4.37942 31.7268 4.435C32.4535 4.70676 38.8586 7.29389 46.0685 16.446C46.0685 16.446 42.9707 20.2293 42.2544 21.0799C40.8489 19.5488 38.2008 16.7685 35.0082 13.9225C32.0456 11.2815 28.3612 8.58187 23.492 8.58187C23.4905 8.58187 23.4883 8.58187 23.487 8.58187C22.9892 8.58187 22.4864 8.60678 21.9929 8.65586C21.2257 8.73225 20.6657 9.41574 20.7419 10.1829C20.8181 10.95 21.5033 11.5093 22.2689 11.4339C22.6714 11.3939 23.0812 11.3735 23.4878 11.3735H23.493C25.6998 11.3735 28.5731 11.9255 33.1505 16.0061C36.4046 18.9071 39.1311 21.8004 40.4245 23.2178C38.38 25.5697 36.191 27.9688 33.8134 30.4635C30.2993 34.1509 27.1162 35.7954 23.4924 35.7954C16.7593 35.7954 11.2813 30.3174 11.2813 23.5843C11.2813 19.4914 13.3175 15.6902 16.7281 13.4161C17.3696 12.9884 17.5428 12.1218 17.1151 11.4804C16.6876 10.8391 15.821 10.6658 15.1793 11.0933C10.9904 13.887 8.48957 18.5566 8.48957 23.5849C8.48957 31.8573 15.2197 38.5875 23.4922 38.5877C29.1964 38.5877 33.0844 35.2757 35.8341 32.3902C39.8578 28.168 49.5627 16.6085 49.5627 16.6085C49.5687 16.6014 49.5744 16.5942 49.5802 16.5871C58.1686 5.82095 63.2625 4.5153 63.5434 4.4508C63.662 4.43556 63.7341 4.41028 63.8477 4.36325C66.0954 3.43309 68.4753 2.91039 70.9213 2.80964L71.8063 2.79179C76.7878 2.79514 81.6046 4.5865 85.3708 7.83685C89.1022 11.0571 91.575 15.4965 92.3338 20.3375C92.4531 21.0991 93.1673 21.6192 93.929 21.5004C94.6906 21.3809 95.2112 20.6667 95.0919 19.9051C94.2307 14.4117 91.4263 9.37541 87.1948 5.72354C82.9184 2.03283 77.4486 0.000196704 71.7927 0.000196704C71.7834 0.000196704 71.7739 0.000195184 71.7645 0.000381067L70.8505 0.0187833C70.841 0.0189692 70.8315 0.019156 70.822 0.0197137C68.0884 0.1305 65.4268 0.706181 62.9082 1.73114C61.7403 1.99138 56.4369 3.70244 47.8833 14.2431C40.5251 5.08336 33.9902 2.30125 32.7044 1.82055C32.5747 1.77204 32.4458 1.72148 32.3178 1.67036C29.6143 0.592049 26.7567 0.0304951 23.8242 0.00131139C17.5296 -0.0644913 11.584 2.34809 7.06905 6.78568C2.55691 11.2209 0.0465569 17.1245 0.000643749 23.4092C-0.0454553 29.7438 2.38571 35.7069 6.84673 40.2006C11.3081 44.6947 17.2525 47.1698 23.5848 47.1698C23.5941 47.1698 23.6036 47.1698 23.613 47.1696L24.527 47.1512C24.5365 47.151 24.546 47.1508 24.5555 47.1502C27.2889 47.0395 29.9507 46.4638 32.4691 45.4388C33.6229 45.1821 38.7982 43.5134 47.147 33.3519C47.9448 34.2635 48.7541 35.1411 49.5638 35.9699C50.1025 36.5213 50.9862 36.5317 51.5377 35.9932C52.0893 35.4545 52.0997 34.5708 51.561 34.0193C50.6821 33.1196 49.8023 32.1597 48.9382 31.1583C49.6713 30.2737 52.4066 26.9401 53.1233 26.0891C54.5282 27.6199 57.1773 30.401 60.3696 33.2471ZM61.5643 16.7057C65.0784 13.0182 68.2615 11.3738 71.8853 11.374C78.6183 11.374 84.0963 16.8518 84.0963 23.5851C84.0963 30.3157 78.6206 35.7935 71.8899 35.7961C71.8883 35.7961 71.8868 35.7961 71.8851 35.7961C69.6783 35.7961 66.8045 35.244 62.2272 31.1633C58.9725 28.2617 56.2458 25.3679 54.953 23.9507C56.9973 21.5993 59.187 19.2001 61.5643 16.7057Z" fill="#687C94"/>
</svg>

<svg width="96" height="48" fill="none" xmlns="http://www.w3.org/2000/svg"><path d="M93.965 25.232a1.395 1.395 0 00-1.572 1.194 20.773 20.773 0 01-6.874 12.778 20.771 20.771 0 01-13.726 5.174 20.67 20.67 0 01-7.945-1.571 1.512 1.512 0 00-.134-.048c-.03-.009-3.003-.938-7.43-4.452a1.396 1.396 0 00-1.736 2.187c4.542 3.605 7.733 4.736 8.29 4.916a23.453 23.453 0 008.955 1.76 23.562 23.562 0 0015.57-5.87 23.565 23.565 0 007.796-14.496 1.396 1.396 0 00-1.194-1.572z" fill="#F6376D"/><path d="M60.37 33.247c2.962 2.641 6.647 5.34 11.516 5.34h.005c8.27-.002 14.997-6.733 14.997-15.002 0-8.273-6.73-15.003-15.003-15.003-5.704 0-9.592 3.312-12.342 6.198-4.023 4.222-13.148 15.048-13.48 15.468-8.748 11.072-13.945 12.405-14.229 12.47-.119.016-.19.041-.304.088a20.66 20.66 0 01-7.074 1.554l-.885.018a20.65 20.65 0 01-14.743-6.145A20.653 20.653 0 012.793 23.43c.04-5.537 2.254-10.741 6.233-14.653 3.932-3.864 9.095-5.984 14.56-5.984h.21c2.587.026 5.106.521 7.488 1.471.148.059.294.116.443.172.726.272 7.132 2.859 14.341 12.011 0 0-3.097 3.783-3.814 4.634a105.177 105.177 0 00-7.246-7.157c-2.962-2.642-6.647-5.341-11.516-5.341h-.005c-.498 0-1 .025-1.494.074a1.396 1.396 0 00.276 2.778c.402-.04.812-.06 1.219-.06h.005c2.207 0 5.08.551 9.658 4.632 3.254 2.901 5.98 5.794 7.273 7.212a213.946 213.946 0 01-6.61 7.245c-3.515 3.688-6.698 5.332-10.322 5.332-6.733 0-12.21-5.478-12.21-12.21a12.2 12.2 0 015.446-10.169 1.396 1.396 0 10-1.549-2.323 14.988 14.988 0 00-6.69 12.492c0 8.272 6.73 15.002 15.003 15.003 5.704 0 9.592-3.312 12.342-6.198 4.024-4.222 13.729-15.782 13.729-15.782l.017-.02C58.17 5.82 63.263 4.514 63.543 4.45c.119-.015.191-.04.305-.088A20.665 20.665 0 0170.92 2.81l.885-.018a20.794 20.794 0 0120.528 17.546 1.396 1.396 0 002.758-.433A23.589 23.589 0 0071.792 0h-.028l-.913.019a23.449 23.449 0 00-7.942 1.712c-1.169.26-6.472 1.971-15.026 12.512C40.525 5.083 33.99 2.301 32.704 1.821c-.13-.049-.258-.1-.386-.15A23.465 23.465 0 0023.824 0C17.53-.064 11.584 2.348 7.07 6.786 2.557 11.22.047 17.125.001 23.409c-.046 6.335 2.385 12.298 6.846 16.792 4.461 4.494 10.405 6.969 16.738 6.969h.028l.914-.019h.028a23.445 23.445 0 007.914-1.712c1.154-.257 6.33-1.926 14.678-12.087.798.912 1.607 1.79 2.417 2.618a1.396 1.396 0 001.997-1.95c-.879-.9-1.759-1.86-2.623-2.862.733-.884 3.469-4.218 4.185-5.069a105.185 105.185 0 007.247 7.158zm1.194-16.541c3.514-3.688 6.697-5.332 10.321-5.332 6.733 0 12.211 5.478 12.211 12.211 0 6.73-5.475 12.209-12.206 12.211h-.005c-2.207 0-5.08-.552-9.658-4.633-3.255-2.901-5.981-5.795-7.274-7.212a214.258 214.258 0 016.611-7.245z" fill="#687C94"/></svg>
